X: 639
M: 6/4
L: 1/4
K: D
d>ef ecA | d3  A2F | G>AB AFD | E3 A,2A |\
d>ef gec | dfB A2G | FdF  Edc | d3 D2 :|
|: e |\
f>ga ecA | g3  f3  | B>cd efd | c3 A2a/g/ |\
fdc  BgB | AfB A2G | FdF  Edc | d3 D2 :|

